X:1
T:Title
%%score { 1 | 2 }
L:1/8
Q:1/4=100
M:4/4
K:Eb
V:1 treble nm="Grand Piano"
V:2 bass 
V:1
 G2 G2 G3 G | AGFE [EG]2 [DF]2 | [FA]2 [FA]2 A3 B | dcBA A2 G2 | B2 B2 B3 [GB] | %5
w: Benj.~A.~Baur * * *|||||
 [Ge][Ge][Bf][Be] [Bd]2 c2 | B2 c2 B3 G | [B,DB][CDA][B,DG][A,DF] [G,E]4 |] %8
w: |||
V:2
 [E,B,E]2 [E,B,E]2 [E,B,E]3 [E,B,E] | [E,CE][E,B,E][E,A,E][E,G,] [B,,B,]2 [B,,B,]2 | %2
 [B,,B,]2 [D,B,]2[K:treble] [F,B,F]3 [B,G] | [B,A][B,EA][B,DG][B,F][K:bass] [E,CE]2 [E,B,E]2 | %4
 [E,G,E]2 [F,A,D]2 [G,B,E]3 [E,E] | [E,B,][E,B,][K:treble][G,E][G,E] [A,E]2 [A,EA]2 | %6
 [B,EG]2 [=A,E_G]2 [B,E=G]3[K:bass] [B,E] | B,,B,,B,,B,, E,4 |] %8

